img/shield-ring.svg

<svg fill="none" height="144" viewBox="0 0 144 144" width="144" xmlns="http://www.w3.org/2000/svg"><g fill="#000"><path clip-rule="evenodd" d="m137.217 65.5827c-1.016-10.4707-4.487-20.222-9.832-28.6715l1.268-.8019c5.467 8.6428 9.018 18.6182 10.057 29.3285z" fill-rule="evenodd"/><path d="m134.837 81.3225 7.275 3.2407-.238 1.8095-9.381-4.318.271-2.0535 4.36-.8045.009-.0678-3.982-2.0691.268-2.0332 10.244-2.2357-.241 1.8299-7.981 1.6996-.01.0746 4.336 2.3156 3.194-.5927-.222 1.6876-7.887 1.4085z"/><path d="m134.489 92.0932-2.554-.9582-1.664 4.4353-1.427-.5355 2.289-6.0994 9.235 3.4653-2.244 5.941-1.421-.5331 1.607-4.2817-2.394-.8982-1.457 3.8849-1.428-.5355z"/><path d="m128.962 106.54c-.28.263-.606.455-.977.578-.371.122-.753.164-1.144.126-.392-.039-.762-.162-1.109-.371-.407-.244-.723-.581-.949-1.009-.225-.422-.329-.891-.311-1.407.021-.514.179-1.016.475-1.509l2.165-3.6035 8.456 5.0795-1.855 3.088c-.282.469-.63.845-1.044 1.128-.415.282-.843.442-1.285.48-.445.041-.853-.05-1.224-.273-.473-.284-.808-.634-1.004-1.05-.197-.416-.252-.829-.165-1.239zm4.384-1.377-2.186-1.313-.736 1.224c-.171.286-.276.563-.315.831-.04.269-.012.512.081.727.096.222.251.398.465.527.219.131.446.188.68.169.235-.019.46-.106.677-.263.22-.155.415-.373.584-.654zm-6.705-2.074c-.343.58-.5 1.063-.471 1.447.03.385.248.699.654.943.41.247.805.266 1.185.058.382-.201.769-.625 1.163-1.271l.711-1.184-2.379-1.429z"/><path d="m118.943 111.284c.479-.538 1.007-.949 1.584-1.235.578-.279 1.171-.4 1.78-.365l.295 1.489c-.464.021-.913.127-1.347.321-.431.196-.784.449-1.06.758-.26.293-.434.599-.522.917s-.09.625-.005.92.254.555.505.779c.402.358.827.501 1.275.43.444-.068.895-.359 1.353-.873.106-.119.229-.275.37-.467l.3-.41.97.196.177 3.945 2.636-2.962 1.125 1.029-4.168 4.683-1.124-1.019-.107-3.5c-.381.436-.798.736-1.25.901-.449.168-.914.194-1.395.076-.484-.113-.963-.374-1.435-.783-.463-.412-.774-.892-.931-1.442-.161-.546-.159-1.114.007-1.704.166-.585.488-1.146.967-1.684z"/><path d="m111.943 131.345-4.548-7.266-4.016 2.513-.808-1.292 5.521-3.457 5.358 8.559z"/><path d="m97.5899 127.853 1.621-.729 4.0451 8.997-1.621.728z"/><path d="m91.7377 130.259 1.7045-.504 2.7958 9.46-6.1426 1.815-.4321-1.462 4.4382-1.312-.7382-2.497-4.0252 1.189-.4301-1.455 4.0251-1.19z"/><path d="m82.3965 136.989-.3042-2.71-4.7078.528-.17-1.515 6.474-.727 1.1004 9.803-6.3125.695-.1693-1.508 4.5447-.51-.2852-2.541-4.1235.463-.1701-1.515z"/><path d="m68.8213 133.291c.7365.052 1.4438.226 2.122.525.6779.303 1.2458.676 1.7038 1.119l-.7646 1.338c-.4539-.37-.9641-.686-1.5306-.95-.5664-.263-1.102-.412-1.6066-.447-.5819-.041-1.0352.04-1.3598.241-.3292.201-.5108.513-.5448.935-.0224.323.1394.624.4854.904.3414.28.877.559 1.6068.838 1.0115.368 1.7676.827 2.2683 1.378s.7256 1.192.6747 1.924c-.0385.555-.1899 1.024-.4542 1.408-.2645.388-.6363.675-1.1152.861s-1.0479.256-1.7071.21c-.0773-.005-.1975-.018-.3605-.039-1.0464-.127-2.0145-.462-2.9042-1.003l.4127-1.5c.8113.486 1.6329.792 2.4647.919.0587.008.1427.016.2518.024.4955.034.8868-.041 1.1738-.227.2867-.181.4418-.44.4652-.776.0439-.632-.6898-1.215-2.2013-1.75-1.0069-.367-1.7426-.824-2.2069-1.373-.4689-.549-.6775-1.196-.6256-1.942.0408-.586.2126-1.086.5154-1.499.3025-.408.7278-.71 1.2758-.905.5481-.194 1.2017-.266 1.961-.213z"/><path d="m51.986 140.621.3764-1.477 2.8352.722 2.0638-8.073 1.729.44-2.0705 8.072 2.8551.727-.3763 1.478z"/><path d="m40.7324 136.291-1.9197-.897 5.7867-3.822 1.6737-3.579 1.61.753-1.6534 3.536.7941 6.951-1.9196-.897-.3741-4.816-.0743-.035z"/><path d="m32.3735 131.861 4.9919-6.969-3.8513-2.759.8877-1.239 5.2962 3.794-5.8796 8.208z"/><path d="m27.2041 120.455 1.9426-1.915-3.3253-3.374 1.0857-1.07 4.5729 4.64-7.0255 6.924-4.4481-4.532 1.0809-1.066 3.2101 3.258 1.821-1.795-2.9127-2.955 1.0857-1.07z"/><path d="m15.7842 97.6562.9028 1.7418-1.6023 1.87 1.8309 3.532 2.4517-.231.8778 1.693-10.69826.826-.55997-1.081zm-4.1354 7.6488 3.722-.351-1.2993-2.506-2.4321 2.839z"/><path d="m3.65931 93.3978c-.20275-.6957-.25283-1.348-.15025-1.9571.0982-.6077.33647-1.1257.71481-1.554.37707-.4327.8675-.737 1.47129-.913.62566-.1824 1.22185-.1971 1.78856-.0442.56234.1541 1.05474.4592 1.47719.9152.41681.4529.72595 1.025.92742 1.7163l.49917 1.7129 3.2355-.9429.4973 1.7063-9.47022 2.76zm4.78079-1.3578c-.10711-.3675-.26928-.6715-.48653-.912-.22289-.2436-.47916-.4062-.7688-.4879-.29092-.0862-.5917-.0839-.90235.0066-.33252.0969-.60207.2633-.80865.4991-.21097.2371-.34373.5227-.39831.8566-.06022.3309-.03551.6844.07415 1.0607l.45905 1.5751 3.3077-.964z"/><path d="m.924037 80.7205c-.072518-.721-.002834-1.3715.209053-1.9516.20735-.5797.53608-1.0456.98617-1.3977.44963-.3567.98732-.5665 1.61307-.6295.64842-.0652 1.2373.029 1.76664.2827.52481.2541.95334.6438 1.28558 1.1692.32725.5213.52691 1.1401.59897 1.8566l.17856 1.7752 3.35322-.3373.1779 1.7684-9.81478.9872zm4.948193-.4634c-.03831-.3808-.14234-.7093-.3121-.9854-.17475-.2801-.39706-.4868-.66695-.6199-.27035-.1377-.56649-.1904-.88844-.158-.34461.0346-.63998.1491-.8861.3433-.25066.1947-.43326.4512-.5478.7696-.11953.3144-.15969.6665-.12046 1.0565l.16419 1.6324 3.42801-.3448z"/><path d="m8.67606 58.5325-6.71986-1.3617.35299-1.742 9.66771 1.9591-.3652 1.8023-7.60309 3.3068-.02037.1005 6.65956 1.3495-.353 1.7419-9.666382-1.9658.351631-1.7352 7.679721-3.375z"/><path d="m9.80038 49.7402 2.51602 1.0531 1.8291-4.37 1.4062.5886-2.5153 6.0095-9.09935-3.8087 2.46463-5.8528 1.39989.5859-1.76577 4.2186 2.35838.9872 1.60213-3.8277 1.40619.5886z"/><path d="m20.5693 34.0584-4.8669-6.3038 1.0683-1.4799 6.2097 8.2511-1.2123 1.6794-4.2201-1.3601-.04.0555 2.5237 3.7102-1.2003 1.6628-10.07874-2.8913 1.08028-1.4965 7.83196 2.2896.044-.061-2.718-4.095-3.0934-.9936.9962-1.3802 7.6116 2.5015z"/><path d="m28.9525 14.8688c1.3479-.9433 2.5779-1.3118 3.6901-1.1056 1.1133.1998 2.1364.9662 3.0693 2.2992.9642 1.3777 1.363 2.6311 1.1963 3.7601-.1666 1.129-.9108 2.156-2.2325 3.081l-2.7556 1.9284-5.6671-8.0739zm4.8491 6.7858c.8476-.5932 1.304-1.2603 1.3695-2.0014.0665-.7474-.2386-1.6047-.9154-2.5717-.648-.926-1.3323-1.4706-2.0529-1.6338-.7168-.1659-1.5102.0556-2.3801.6645l-1.2434.8701 3.9117 5.5894z"/><path d="m41.7224 13.4127 1.1185 2.4877 4.3207-1.9426.6251 1.3904-5.9418 2.6714-4.0449-8.99678 5.7977-2.59167.6223 1.38412-4.1711 1.87531 1.0484 2.33182 3.7845-1.7015.6251 1.3903z"/><path d="m53.6337 13.1512-1.7223.4388-2.4352-9.55898 6.207-1.58129.3763 1.47723-4.4847 1.14252.643 2.52387 4.0674-1.03619.3746 1.47061-4.0673 1.03619z"/><path d="m63.9519 10.9962-1.7663.1983-1.1004-9.80272 1.7663-.19827z"/><path d="m75.2273 7.5913.3174-6.849092 1.7754.082275-.4566 9.853717-1.8369-.0852-4.4313-7.00752-.1025-.00475-.3145 6.78767-1.7755-.0823.4635-9.853376 1.7686.081959 4.5104 7.072827z"/><path d="m83.3019 11.5784-1.7405-.3596 1.996-9.66024 1.7405.35963z"/><path d="m97.7981 5.52182-.5195 1.43319-2.7507-.99692-2.8457 7.83201-1.6775-.6079 2.8523-7.82972-2.77-1.00391.5194-1.43319z"/><path d="m100.059 17.3762-1.5653-.8412 4.6683-8.68953 1.566.84118z"/><path d="m107.569 22.2346c-.779-.6021-1.335-1.3057-1.669-2.1109-.33-.8025-.423-1.6402-.278-2.5131.151-.8738.539-1.7146 1.164-2.5222.621-.8041 1.334-1.3875 2.139-1.7504.808-.3602 1.641-.4797 2.498-.3588.863.1202 1.684.4813 2.463 1.0833.775.5993 1.328 1.3001 1.658 2.1026.333.7988.425 1.6333.277 2.5035-.149.8702-.534 1.7073-1.155 2.5113-.625.8077-1.341 1.3948-2.148 1.7613-.805.3629-1.637.4857-2.497.3683s-1.677-.4757-2.452-1.0749zm.932-1.2061c.498.3846 1.031.6039 1.6.6578.569.0538 1.127-.0565 1.673-.3311.553-.2755 1.048-.6962 1.485-1.2623.438-.5661.718-1.1477.839-1.7448.129-.5979.094-1.1636-.105-1.697-.195-.537-.542-.9979-1.039-1.3825-.501-.3874-1.038-.6095-1.611-.6661-.566-.0575-1.124.0497-1.674.3215-.547.2682-1.04.6853-1.477 1.2514-.438.5661-.72 1.1513-.848 1.7556-.124.6007-.087 1.171.112 1.7108s.548 1.0021 1.045 1.3867z"/><path d="m121.761 31.2238 5.268-4.3882 1.138 1.3657-7.58 6.3132-1.177-1.4129 2.181-7.9993-.066-.0788-5.221 4.3488-1.137-1.3656 7.583-6.308 1.134 1.3604-2.176 8.1017z"/></g></svg>

<svg width="144" height="144" viewBox="0 0 144 144" fill="none" xmlns="http://www.w3.org/2000/svg">
<path fill-rule="evenodd" clip-rule="evenodd" d="M137.217 65.5827C136.201 55.112 132.73 45.3607 127.385 36.9112L128.653 36.1093C134.12 44.7521 137.671 54.7275 138.71 65.4378L137.217 65.5827Z" fill="black"/>
<path d="M134.837 81.3225L142.112 84.5632L141.874 86.3727L132.493 82.0547L132.764 80.0012L137.124 79.1967L137.133 79.1289L133.151 77.0598L133.419 75.0266L143.663 72.7909L143.422 74.6208L135.441 76.3204L135.431 76.395L139.767 78.7106L142.961 78.1179L142.739 79.8055L134.852 81.214L134.837 81.3225Z" fill="black"/>
<path d="M134.489 92.0932L131.935 91.135L130.271 95.5703L128.844 95.0348L131.133 88.9354L140.368 92.4007L138.124 98.3417L136.703 97.8086L138.31 93.5269L135.916 92.6287L134.459 96.5136L133.031 95.9781L134.489 92.0932Z" fill="black"/>
<path d="M128.962 106.54C128.682 106.803 128.356 106.995 127.985 107.118C127.614 107.24 127.232 107.282 126.841 107.244C126.449 107.205 126.079 107.082 125.732 106.873C125.325 106.629 125.009 106.292 124.783 105.864C124.558 105.442 124.454 104.973 124.472 104.457C124.493 103.943 124.651 103.441 124.947 102.948L127.112 99.3445L135.568 104.424L133.713 107.512C133.431 107.981 133.083 108.357 132.669 108.64C132.254 108.922 131.826 109.082 131.384 109.12C130.939 109.161 130.531 109.07 130.16 108.847C129.687 108.563 129.352 108.213 129.156 107.797C128.959 107.381 128.904 106.968 128.991 106.558L128.962 106.54ZM133.346 105.163L131.16 103.85L130.424 105.074C130.253 105.36 130.148 105.637 130.109 105.905C130.069 106.174 130.097 106.417 130.19 106.632C130.286 106.854 130.441 107.03 130.655 107.159C130.874 107.29 131.101 107.347 131.335 107.328C131.57 107.309 131.795 107.222 132.012 107.065C132.232 106.91 132.427 106.692 132.596 106.411L133.346 105.163ZM126.641 103.089C126.298 103.669 126.141 104.152 126.17 104.536C126.2 104.921 126.418 105.235 126.824 105.479C127.234 105.726 127.629 105.745 128.009 105.537C128.391 105.336 128.778 104.912 129.172 104.266L129.883 103.082L127.504 101.653L126.641 103.089Z" fill="black"/>
<path d="M118.943 111.284C119.422 110.746 119.95 110.335 120.527 110.049C121.105 109.77 121.698 109.649 122.307 109.684L122.602 111.173C122.138 111.194 121.689 111.3 121.255 111.494C120.824 111.69 120.471 111.943 120.195 112.252C119.935 112.545 119.761 112.851 119.673 113.169C119.585 113.487 119.583 113.794 119.668 114.089C119.753 114.384 119.922 114.644 120.173 114.868C120.575 115.226 121 115.369 121.448 115.298C121.892 115.23 122.343 114.939 122.801 114.425C122.907 114.306 123.03 114.15 123.171 113.958L123.471 113.548L124.441 113.744L124.618 117.689L127.254 114.727L128.379 115.756L124.211 120.439L123.087 119.42L122.98 115.92C122.599 116.356 122.182 116.656 121.73 116.821C121.281 116.989 120.816 117.015 120.335 116.897C119.851 116.784 119.372 116.523 118.9 116.114C118.437 115.702 118.126 115.222 117.969 114.672C117.808 114.126 117.81 113.558 117.976 112.968C118.142 112.383 118.464 111.822 118.943 111.284Z" fill="black"/>
<path d="M111.943 131.345L107.395 124.079L103.379 126.592L102.571 125.3L108.092 121.843L113.45 130.402L111.943 131.345Z" fill="black"/>
<path d="M97.5899 127.853L99.2109 127.124L103.256 136.121L101.635 136.849L97.5899 127.853Z" fill="black"/>
<path d="M91.7377 130.259L93.4422 129.755L96.238 139.215L90.0954 141.03L89.6633 139.568L94.1015 138.256L93.3633 135.759L89.3381 136.948L88.908 135.493L92.9331 134.303L91.7377 130.259Z" fill="black"/>
<path d="M82.3965 136.989L82.0923 134.279L77.3845 134.807L77.2145 133.292L83.6885 132.565L84.7889 142.368L78.4764 143.063L78.3071 141.555L82.8518 141.045L82.5666 138.504L78.4431 138.967L78.273 137.452L82.3965 136.989Z" fill="black"/>
<path d="M68.8213 133.291C69.5578 133.343 70.2651 133.517 70.9433 133.816C71.6212 134.119 72.1891 134.492 72.6471 134.935L71.8825 136.273C71.4286 135.903 70.9184 135.587 70.3519 135.323C69.7855 135.06 69.2499 134.911 68.7453 134.876C68.1634 134.835 67.7101 134.916 67.3855 135.117C67.0563 135.318 66.8747 135.63 66.8407 136.052C66.8183 136.375 66.9801 136.676 67.3261 136.956C67.6675 137.236 68.2031 137.515 68.9329 137.794C69.9444 138.162 70.7005 138.621 71.2012 139.172C71.7019 139.723 71.9268 140.364 71.8759 141.096C71.8374 141.651 71.686 142.12 71.4217 142.504C71.1572 142.892 70.7854 143.179 70.3065 143.365C69.8276 143.551 69.2586 143.621 68.5994 143.575C68.5221 143.57 68.4019 143.557 68.2389 143.536C67.1925 143.409 66.2244 143.074 65.3347 142.533L65.7474 141.033C66.5587 141.519 67.3803 141.825 68.2121 141.952C68.2708 141.96 68.3548 141.968 68.4639 141.976C68.9594 142.01 69.3507 141.935 69.6377 141.749C69.9244 141.568 70.0795 141.309 70.1029 140.973C70.1468 140.341 69.4131 139.758 67.9016 139.223C66.8947 138.856 66.159 138.399 65.6947 137.85C65.2258 137.301 65.0172 136.654 65.0691 135.908C65.1099 135.322 65.2817 134.822 65.5845 134.409C65.887 134.001 66.3123 133.699 66.8603 133.504C67.4084 133.31 68.062 133.238 68.8213 133.291Z" fill="black"/>
<path d="M51.986 140.621L52.3624 139.144L55.1976 139.866L57.2614 131.793L58.9904 132.233L56.9199 140.305L59.775 141.032L59.3987 142.51L51.986 140.621Z" fill="black"/>
<path d="M40.7324 136.291L38.8127 135.394L44.5994 131.572L46.2731 127.993L47.8831 128.746L46.2297 132.282L47.0238 139.233L45.1042 138.336L44.7301 133.52L44.6558 133.485L40.7324 136.291Z" fill="black"/>
<path d="M32.3735 131.861L37.3654 124.892L33.5141 122.133L34.4018 120.894L39.698 124.688L33.8184 132.896L32.3735 131.861Z" fill="black"/>
<path d="M27.2041 120.455L29.1467 118.54L25.8214 115.166L26.9071 114.096L31.48 118.736L24.4545 125.66L20.0064 121.128L21.0873 120.062L24.2974 123.32L26.1184 121.525L23.2057 118.57L24.2914 117.5L27.2041 120.455Z" fill="black"/>
<path d="M15.7842 97.6562L16.687 99.398L15.0847 101.268L16.9156 104.8L19.3673 104.569L20.2451 106.262L9.54684 107.088L8.98687 106.007L15.7842 97.6562ZM11.6488 105.305L15.3708 104.954L14.0715 102.448L11.6394 105.287L11.6488 105.305Z" fill="black"/>
<path d="M3.65931 93.3978C3.45656 92.7021 3.40648 92.0498 3.50906 91.4407C3.60726 90.833 3.84553 90.315 4.22387 89.8867C4.60094 89.454 5.09137 89.1497 5.69516 88.9737C6.32082 88.7913 6.91701 88.7766 7.48372 88.9295C8.04606 89.0836 8.53846 89.3887 8.96091 89.8447C9.37772 90.2976 9.68686 90.8697 9.88833 91.561L10.3875 93.2739L13.623 92.331L14.1203 94.0373L4.65008 96.7973L3.65931 93.3978ZM8.4401 92.04C8.33299 91.6725 8.17082 91.3685 7.95357 91.128C7.73068 90.8844 7.47441 90.7218 7.18477 90.6401C6.89385 90.5539 6.59307 90.5562 6.28242 90.6467C5.9499 90.7436 5.68035 90.91 5.47377 91.1458C5.2628 91.3829 5.13004 91.6685 5.07546 92.0024C5.01524 92.3333 5.03995 92.6868 5.14961 93.0631L5.60866 94.6382L8.91636 93.6742L8.4401 92.04Z" fill="black"/>
<path d="M0.924037 80.7205C0.851519 79.9995 0.921203 79.349 1.13309 78.7689C1.34044 78.1892 1.66917 77.7233 2.11926 77.3712C2.56889 77.0145 3.10658 76.8047 3.73233 76.7417C4.38075 76.6765 4.96963 76.7707 5.49897 77.0244C6.02378 77.2785 6.45231 77.6682 6.78455 78.1936C7.1118 78.7149 7.31146 79.3337 7.38352 80.0502L7.56208 81.8254L10.9153 81.4881L11.0932 83.2565L1.27842 84.2437L0.924037 80.7205ZM5.87223 80.2571C5.83392 79.8763 5.72989 79.5478 5.56013 79.2717C5.38538 78.9916 5.16307 78.7849 4.89318 78.6518C4.62283 78.5141 4.32669 78.4614 4.00474 78.4938C3.66013 78.5284 3.36476 78.6429 3.11864 78.8371C2.86798 79.0318 2.68538 79.2883 2.57084 79.6067C2.45131 79.9211 2.41115 80.2732 2.45038 80.6632L2.61457 82.2956L6.04258 81.9508L5.87223 80.2571Z" fill="black"/>
<path d="M8.67606 58.5325L1.9562 57.1708L2.30919 55.4288L11.9769 57.3879L11.6117 59.1902L4.00861 62.497L3.98824 62.5975L10.6478 63.947L10.2948 65.6889L0.628418 63.7231L0.980049 61.9879L8.65977 58.6129L8.67606 58.5325Z" fill="black"/>
<path d="M9.80038 49.7402L12.3164 50.7933L14.1455 46.4233L15.5517 47.0119L13.0364 53.0214L3.93705 49.2127L6.40168 43.3599L7.80157 43.9458L6.0358 48.1644L8.39418 49.1516L9.99631 45.3239L11.4025 45.9125L9.80038 49.7402Z" fill="black"/>
<path d="M20.5693 34.0584L15.7024 27.7546L16.7707 26.2747L22.9804 34.5258L21.7681 36.2052L17.548 34.8451L17.508 34.9006L20.0317 38.6108L18.8314 40.2736L8.75266 37.3823L9.83294 35.8858L17.6649 38.1754L17.7089 38.1144L14.9909 34.0194L11.8975 33.0258L12.8937 31.6456L20.5053 34.1471L20.5693 34.0584Z" fill="black"/>
<path d="M28.9525 14.8688C30.3004 13.9255 31.5304 13.557 32.6426 13.7632C33.7559 13.963 34.779 14.7294 35.7119 16.0624C36.6761 17.4401 37.0749 18.6935 36.9082 19.8225C36.7416 20.9515 35.9974 21.9785 34.6757 22.9035L31.9201 24.8319L26.253 16.758L28.9525 14.8688ZM33.8016 21.6546C34.6492 21.0614 35.1056 20.3943 35.1711 19.6532C35.2376 18.9058 34.9325 18.0485 34.2557 17.0815C33.6077 16.1555 32.9234 15.6109 32.2028 15.4477C31.486 15.2818 30.6926 15.5033 29.8227 16.1122L28.5793 16.9823L32.491 22.5717L33.8016 21.6546Z" fill="black"/>
<path d="M41.7224 13.4127L42.8409 15.9004L47.1616 13.9578L47.7867 15.3482L41.8449 18.0196L37.8 9.02282L43.5977 6.43115L44.22 7.81527L40.0489 9.69058L41.0973 12.0224L44.8818 10.3209L45.5069 11.7112L41.7224 13.4127Z" fill="black"/>
<path d="M53.6337 13.1512L51.9114 13.59L49.4762 4.03102L55.6832 2.44973L56.0595 3.92696L51.5748 5.06948L52.2178 7.59335L56.2852 6.55716L56.6598 8.02777L52.5925 9.06396L53.6337 13.1512Z" fill="black"/>
<path d="M63.9519 10.9962L62.1856 11.1945L61.0852 1.39178L62.8515 1.19351L63.9519 10.9962Z" fill="black"/>
<path d="M75.2273 7.5913L75.5447 0.742208L77.3201 0.824483L76.8635 10.6782L75.0266 10.593L70.5953 3.58548L70.4928 3.58073L70.1783 10.3684L68.4028 10.2861L68.8663 0.432724L70.6349 0.514683L75.1453 7.58751L75.2273 7.5913Z" fill="black"/>
<path d="M83.3019 11.5784L81.5614 11.2188L83.5574 1.55856L85.2979 1.91819L83.3019 11.5784Z" fill="black"/>
<path d="M97.7981 5.52182L97.2786 6.95501L94.5279 5.95809L91.6822 13.7901L90.0047 13.1822L92.857 5.35248L90.087 4.34857L90.6064 2.91538L97.7981 5.52182Z" fill="black"/>
<path d="M100.059 17.3762L98.4937 16.535L103.162 7.84547L104.728 8.68665L100.059 17.3762Z" fill="black"/>
<path d="M107.569 22.2346C106.79 21.6325 106.234 20.9289 105.9 20.1237C105.57 19.3212 105.477 18.4835 105.622 17.6106C105.773 16.7368 106.161 15.896 106.786 15.0884C107.407 14.2843 108.12 13.7009 108.925 13.338C109.733 12.9778 110.566 12.8583 111.423 12.9792C112.286 13.0994 113.107 13.4605 113.886 14.0625C114.661 14.6618 115.214 15.3626 115.544 16.1651C115.877 16.9639 115.969 17.7984 115.821 18.6686C115.672 19.5388 115.287 20.3759 114.666 21.1799C114.041 21.9876 113.325 22.5747 112.518 22.9412C111.713 23.3041 110.881 23.4269 110.021 23.3095C109.161 23.1921 108.344 22.8338 107.569 22.2346ZM108.501 21.0285C108.999 21.4131 109.532 21.6324 110.101 21.6863C110.67 21.7401 111.228 21.6298 111.774 21.3552C112.327 21.0797 112.822 20.659 113.259 20.0929C113.697 19.5268 113.977 18.9452 114.098 18.3481C114.227 17.7502 114.192 17.1845 113.993 16.6511C113.798 16.1141 113.451 15.6532 112.954 15.2686C112.453 14.8812 111.916 14.6591 111.343 14.6025C110.777 14.545 110.219 14.6522 109.669 14.924C109.122 15.1922 108.629 15.6093 108.192 16.1754C107.754 16.7415 107.472 17.3267 107.344 17.931C107.22 18.5317 107.257 19.102 107.456 19.6418C107.655 20.1816 108.004 20.6439 108.501 21.0285Z" fill="black"/>
<path d="M121.761 31.2238L127.029 26.8356L128.167 28.2013L120.587 34.5145L119.41 33.1016L121.591 25.1023L121.525 25.0235L116.304 29.3723L115.167 28.0067L122.75 21.6987L123.884 23.0591L121.708 31.1608L121.761 31.2238Z" fill="black"/>
</svg>
